icon-themes/sifr_svg/cmd/lc_incrementlevel.svg

<svg viewBox="0 0 24 24" xmlns="http://www.w3.org/2000/svg"><path d="m2 2v2h20v-2zm0 4v2h13v-2zm19 0c-.354218 0-.55232.0903-.75.28125l-4.25 3.939453v1.615235l4.25 3.882812c.19768.19095.44055.28125.75.28125h.587891.412109v-1c0-.484318-.297796-.669482-.683594-1l-3.316406-3 3.316406-3c.345695-.3392438.683594-.5442579.683594-1v-1h-.412109zm-19 10v2h13v-2zm0 4v2h20v-2z" fill="#555753"/></svg>

<svg xmlns="http://www.w3.org/2000/svg" viewBox="0 0 24 24">
  <path
     style="fill:#555753"
     d="M 2 2 L 2 4 L 22 4 L 22 2 L 2 2 z M 2 6 L 2 8 L 15 8 L 15 6 L 2 6 z M 21 6 C 20.645782 6 20.44768 6.0903 20.25 6.28125 L 16 10.220703 L 16 11.835938 L 20.25 15.71875 C 20.44768 15.9097 20.69055 16 21 16 L 21.587891 16 L 22 16 L 22 15 C 22 14.515682 21.702204 14.330518 21.316406 14 L 18 11 L 21.316406 8 C 21.662101 7.6607562 22 7.4557421 22 7 L 22 6 L 21.587891 6 L 21 6 z M 2 16 L 2 18 L 15 18 L 15 16 L 2 16 z M 2 20 L 2 22 L 22 22 L 22 20 L 2 20 z "
     />
</svg>
